X:1
T:Title
%%score { ( 1 3 ) | ( 2 4 ) }
L:1/8
Q:1/4=100
M:4/4
K:D
V:1 treble nm="Grand Piano"
V:3 treble 
V:2 bass 
V:4 bass 
V:1
 [DF]>[EG] [FA]>[GB] [FA]2 F2 | B>^A B>c d2 B2 | [FA]>[=F^G] [^FA]>[=GB] [FA]>F E>D | [CE]6 z2 | %4
w: Wm.~J.~Kirkpatrick * * * * *||||
 [DF]>[EG] [FA]>[GB] [FA]2 F2 | B>^A B>c d2 B2 | A>A AA ^GABc | [Fd]6 z2 | B>^A B>c d2 B2 | %9
w: |||||
 [FA]>[GB] [FA]>[EG] [DF]4 | [EG]>[FA] [EG]>[DF] [CE]2 [CE]2 | [DF]>[EG] [FA]>[GB] [FA]4 | %12
w: |||
 B>^A B>c d2 B2 | [FA]>[GB] [FA]>[EG] [DF]2 [FA]2 | B>B BB AABc | d2- [Gd-]2 [Fd]2 z2 |] %16
w: ||||
V:2
 [D,A,]>[D,A,] [D,D]>[D,D] [D,D]2 [D,D]2 | [G,DG]>[G,CG] [G,DG]>[G,^A,G] [G,B,G]2 [G,DG]2 | %2
 [D,D]>[D,D] [D,D]>[D,D] [D,D]>[D,A,D] [E,A,C]>[E,^G,B,] | [A,,A,]6 z2 | %4
 [D,A,]>[D,A,] [D,D]>[D,D] [D,D]2 [D,D]2 | [G,DG]>[G,CG] [G,DG]>[G,^A,G] [G,B,G]2 [G,DG]2 | %6
 [A,DF]>[A,DF] [A,DF][A,DF] [A,D=F][A,D^F][A,CG][A,G] | [D,A,]6 z2 | %8
 [G,DG]>[G,CG] [G,DG]>[G,CG] [G,B,G]2 [G,DG]2 | [D,D]>[D,D] [D,D]>[D,G,] [D,A,]4 | %10
 [A,,A,]>[A,,A,] [A,,A,]>[A,,A,] [A,,A,]2 [A,,A,]2 | [D,A,]>[D,A,] [D,D]>[D,D] [D,D]4 | %12
 [G,DG]>[G,CG] [G,DG]>[G,CG] [G,B,G]2 [G,DG]2 | [D,D]>[D,D] [D,D]>[D,A,] [D,A,]2 [D,D]2 | %14
 [G,DG]>[G,DG] [G,DG][G,DG] [A,DF][A,DF][A,CG][A,G] | A,2- [A,B,]2 A,2 z2 |] %16
V:3
 x8 | x8 | x8 | x8 | x8 | x8 | x8 | x8 | x8 | x8 | x8 | x8 | x8 | x8 | x8 | F4 z4 |] %16
V:4
 x8 | x8 | x8 | x8 | x8 | x8 | x8 | x8 | x8 | x8 | x8 | x8 | x8 | x8 | x8 | D,6 z2 |] %16

